X:808
T:Jenny's Baubee 
C:Joe Buchanan's Scottish Tome - Page 063.1
I:063 1
R:Strathspey
Z:Carl Allison
L:1/8
M:4/4
K:Dmaj
a>ba>g f>d (3fga | B>dc>A d2 d3/ :|
|:f/ |a>ba>g f<dd>f | g>fe>d c<AA>f |
f>dg>e f>d (3fga | B2 c>A d2 d3/ :|
|:e/ |f>dg>e f<dd>f | g>Be>d c<AA>e |

